assets/Wine glass/Flat/wine_glass_flat.svg

<svg width="32" height="32" viewBox="0 0 32 32" fill="none" xmlns="http://www.w3.org/2000/svg">
<path d="M25.5995 10.12L22.3095 2.46C22.1895 2.18 21.9195 2 21.6195 2H10.5395C10.2395 2 9.95954 2.18 9.84954 2.46L6.55954 10.12C5.11954 13.48 6.54954 17.37 9.80954 19L14.7295 21.46C15.0695 21.63 15.2895 21.98 15.2895 22.36V28.72H11.7995C11.3995 28.72 11.0495 29.03 11.0395 29.44C11.0295 29.85 11.3595 30.18 11.7695 30.18H20.3495C20.7495 30.18 21.0995 29.87 21.1095 29.46C21.1195 29.05 20.7895 28.72 20.3795 28.72H16.8295V22.37C16.8295 21.99 17.0495 21.64 17.3895 21.47L22.3395 18.99C25.6095 17.37 27.0395 13.47 25.5995 10.12Z" fill="#AEDDFF"/>
<path d="M22.3695 12.93C21.9795 12.93 21.6095 12.7 21.4495 12.32L18.1595 4.65995C17.9395 4.14995 18.1795 3.55995 18.6795 3.34995C19.1895 3.12995 19.7695 3.36995 19.9895 3.86995L23.2795 11.53C23.4995 12.04 23.2595 12.63 22.7595 12.84C22.6295 12.9 22.4995 12.93 22.3695 12.93Z" fill="white"/>
<path d="M23.2095 10H22.5866L21.9256 10.9159L20.4463 10H8.94953C8.51953 10 8.11953 10.26 7.94953 10.66C6.82953 13.28 7.93953 16.32 10.4895 17.6L14.9495 19.83C15.6595 20.18 16.4895 20.18 17.1995 19.83L21.6695 17.6C24.2195 16.32 25.3395 13.28 24.2095 10.66C24.0395 10.25 23.6495 10 23.2095 10Z" fill="#BB1D80"/>
<path d="M20.4531 10L21.4495 12.32C21.6095 12.7 21.9795 12.93 22.3695 12.93C22.4995 12.93 22.6295 12.9 22.7595 12.84C23.2595 12.63 23.4995 12.04 23.2795 11.53L22.6224 10H20.4531Z" fill="#FF6DC6"/>
</svg>

<svg xmlns="http://www.w3.org/2000/svg" width="32" height="32" fill="none"><path fill="#AEDDFF" d="m25.6 10.12-3.29-7.66a.751.751 0 0 0-.69-.46H10.54c-.3 0-.58.18-.69.46l-3.29 7.66A6.89 6.89 0 0 0 9.81 19l4.92 2.46c.34.17.56.52.56.9v6.36H11.8c-.4 0-.75.31-.76.72-.01.41.32.74.73.74h8.58c.4 0 .75-.31.76-.72a.724.724 0 0 0-.73-.74h-3.55v-6.35c0-.38.22-.73.56-.9l4.95-2.48a6.873 6.873 0 0 0 3.26-8.87Z"/><path fill="#fff" d="M22.37 12.93c-.39 0-.76-.23-.92-.61l-3.29-7.66c-.22-.51.02-1.1.52-1.31a.999.999 0 0 1 1.31.52l3.29 7.66c.22.51-.02 1.1-.52 1.31-.13.06-.26.09-.39.09Z"/><path fill="#BB1D80" d="M23.21 10h-.623l-.661.916-1.48-.916H8.95c-.43 0-.83.26-1 .66a5.392 5.392 0 0 0 2.54 6.94l4.46 2.23c.71.35 1.54.35 2.25 0l4.47-2.23c2.55-1.28 3.67-4.32 2.54-6.94-.17-.41-.56-.66-1-.66Z"/><path fill="#FF6DC6" d="m20.453 10 .997 2.32c.16.38.53.61.92.61.13 0 .26-.03.39-.09.5-.21.74-.8.52-1.31L22.621 10h-2.169Z"/></svg>
